img/qube.svg

<svg width="75" height="75" viewBox="0 0 75 75" fill="none" xmlns="http://www.w3.org/2000/svg">
<path d="M35.0098 1.40039L4.54102 12.8262C1.75781 13.8516 0 16.4883 0 19.418V52.377C0 55.0137 1.46484 57.5039 3.80859 58.6758L34.2773 73.9102C36.3281 74.9355 38.5254 74.9355 40.5762 73.9102L71.0449 58.6758C73.3887 57.5039 74.8535 55.0137 74.8535 52.377V19.418C74.8535 16.4883 73.0957 13.8516 70.3125 12.8262L39.8438 1.40039C38.3789 0.814453 36.6211 0.814453 35.0098 1.40039ZM37.5 10.4824L65.625 21.0293V21.1758L37.5 32.6016L9.375 21.1758V21.0293L37.5 10.4824ZM42.1875 62.6309V40.8047L65.625 31.2832V50.9121L42.1875 62.6309Z" fill="#1F1915" fill-opacity="0.2"/>
</svg>

<svg width="75" height="75" fill="none" xmlns="http://www.w3.org/2000/svg"><path d="M35.01 1.4L4.54 12.826C1.758 13.852 0 16.488 0 19.418v32.959c0 2.637 1.465 5.127 3.809 6.299L34.277 73.91c2.051 1.026 4.248 1.026 6.3 0l30.468-15.234c2.344-1.172 3.808-3.662 3.808-6.299V19.418c0-2.93-1.757-5.566-4.54-6.592L39.843 1.4c-1.464-.586-3.222-.586-4.833 0zm2.49 9.082L65.625 21.03v.147L37.5 32.602 9.375 21.176v-.147L37.5 10.482zm4.688 52.149V40.805l23.437-9.522v19.63L42.187 62.63z" fill="#1F1915" fill-opacity=".2"/></svg>
